source/img/icons/app-store.svg

<svg width="27" height="27" viewBox="0 0 27 27" fill="none" xmlns="http://www.w3.org/2000/svg">
<path d="M19.7068 14.1249C19.6963 12.3267 20.511 10.9714 22.1563 9.97207C21.2361 8.65371 19.8439 7.92861 18.0088 7.78887C16.2712 7.65176 14.3701 8.80137 13.674 8.80137C12.9384 8.80137 11.2562 7.83633 9.93252 7.83633C7.20088 7.87852 4.29785 10.0143 4.29785 14.3596C4.29785 15.6437 4.53252 16.9699 5.00186 18.3357C5.62939 20.134 7.8917 24.5399 10.2516 24.4688C11.4855 24.4397 12.3583 23.5934 13.9641 23.5934C15.5224 23.5934 16.3292 24.4688 17.7056 24.4688C20.0865 24.4345 22.1326 20.4293 22.7285 18.6258C19.5354 17.1202 19.7068 14.2172 19.7068 14.1249ZM16.9356 6.08291C18.2725 4.49561 18.1512 3.05068 18.1116 2.53125C16.9304 2.5998 15.5646 3.33545 14.7867 4.23984C13.9298 5.21016 13.4262 6.40986 13.5343 7.7625C14.8104 7.86006 15.9759 7.20352 16.9356 6.08291Z" fill="white"/>
</svg>

<svg xmlns="http://www.w3.org/2000/svg" fill="none" viewBox="0 0 27 27">
  <path fill="#fff" d="M19.707 14.125c-.01-1.798.804-3.154 2.45-4.153-.92-1.318-2.313-2.043-4.148-2.183C16.27 7.652 14.37 8.8 13.674 8.8c-.736 0-2.418-.965-3.741-.965-2.732.043-5.635 2.178-5.635 6.524 0 1.284.235 2.61.704 3.976.627 1.798 2.89 6.204 5.25 6.133 1.233-.03 2.106-.876 3.712-.876 1.558 0 2.365.876 3.742.876 2.38-.035 4.427-4.04 5.023-5.843-3.194-1.506-3.022-4.409-3.022-4.501Zm-2.771-8.042c1.337-1.587 1.215-3.032 1.176-3.552-1.182.069-2.547.804-3.325 1.709-.857.97-1.36 2.17-1.253 3.522 1.276.098 2.442-.558 3.402-1.68Z"/>
</svg>
